!!!OTL: Mei Schatzerl.
!!!OTL-incipit:MEI SCHATZERL IS HUEBSCH ABER REICH IS ES NIT
!!!COM: C. M. v. Weber
!!!ARE: Europa, Mitteleuropa, Deutschland
!!!SCT: F0107
!!!TXL: @@BAR
!!!YEM: Copyright 1995, estate of Helmut Schaffrath.
**kern	**text	**text
*ICvox	*	*
*clefG2	*	*
*M3/8	*	*
*k[f#c#g#d#]	*	*
*E:	*	*
!LO:TX:a:t=Sehr lebendig.	!	!
{16g#L	1._Mei	2._Mei
16aJ	.	.
=1	=1	=1
8b/	Schatʒerl	Schatʒerl
8g#	.	.
(16g#L	is	is
16gg#J)	.	.
=2	=2	=2
4ee;}	hübſch!	fromm;
{16g#	a-	is
16cc#	-ber	ſo
=3	=3	=3
(16cc#L	reich	her-
16d#J)	.	.
(16d#L	is	-ʒig,
16bJ)	.	.
(16bL	es	ſo
16d#J)	.	.
=4	=4	=4
8e	nit.	gut!
8r}	.	.
{(16d#L	Was	Un
16eJ)	.	.
=5	=5	=5
8f#	nütʒt	gibt's
8f#	mi	mi
(16g#L	der	a
16a#J)	.	.
=6	=6	=6
8b	Reichthum,	Buſſerl,
8b}	.	.
{16cc#L	das	ſo
16dd#J	.	.
=7	=7	=7
16ff#L	1._Geld	2._wachſt
16eeJ	.	.
16eeq	.	.
16dd#L	küß'	mi
16cc#J	.	.
16cc#qq	.	.
16b\L	i	der
16a#J	.	.
=8	=8	=8
4.b;}	nit.	Muth.
=9	=9	=9
{16g#L	Schön	Drum
16anJ	.	.
16b	bin	gilt's
16cc#	i	mi
8b	nit,	mehr
=10	=10	=10
(16bL	reich	als
16eeJ)	.	.
16g#	bin	al-
16cc#	i	-les
8b}	wohl,	Gold,
=11	=11	=11
{16bL	Geld	is
16aJ	.	.
16bq	.	.
16a	hab'	mi
16g#	i_a	.
(16a/L	ganʒ	mei
16cc#J)	.	.
=12	=12	=12
16cc#qq	.	.
8b	Beu-	Scha-
16bL	-tel	-tʒerl
16aJ	.	.
8g#}	voll;	hold;
=13	=13	=13
{16e	1._gehn	2._und
16f#	mir	wenn
(16g#L	nur	i
16aJ)	.	.
(16b/L	drei	ſtets
16cc#J)	.	.
=14	=14	=14
16bq	.	.
8a	Ba-	bei
16aL	-tʒen	ihm
16g#J	.	.
8f#}	ab,	blieb,
=15	=15	=15
{(16e	daß	wär's
16f#)	i	es
(16g#L	grad'	mi
16aJ)	.	.
(16bL	ʒwölf	um
16cc#J)	.	.
=16	=16	=16
16bqq	.	.
8a	Kreuʒer	Eins
(16aL	.	ſo
16g#J)	.	.
[8f#	hab'!	lieb!
=17	=17	=17
4f#;]}	.	.
{(16g#L	Mei	Mei
16aJ)	.	.
=18	=18	=18
8b	Schatʒerl	Schatʒerl
8g#	.	.
(16g#L	is	ſo
16gg#J)	.	.
=19	=19	=19
4ee;}	1._hübſch,	2._treu,
{16g#	a-	wie
16cc#	-ber	hab'
=20	=20	=20
(16cc#L	reich	i
16d#J)	.	.
(16d#L	is	di
16bJ)	.	.
(16bL	es	ſo
16d#J)	.	.
=21	=21	=21
8e	nit!	lieb!
8r}	.	.
==	==	==
!!!AGN: Liebes - Lied
!!!ONB: ESAC (Essen Associative Code) Database: FINK
!!!AMT: simple triple
!!!AIN: vox
!!!EED: Helmut Schaffrath
!!!EEV: 1.0
!!!GTL: Volkslieder
!!Text: Volkslied
!!!source: Musikalischer Hausschatz der Deutschen. Eine Sammlung von über 1000 Liedern und Gesängen mit Singstimmen und Klavierbegleitung. Leipzig, Litterarisches Verlags-Haus.
!!!page: 66
!!!URL-scan: https://www.digitale-sammlungen.de/en/view/bsb11144622?page=74,75
!!!ENC: Anna Maria Matuszewska
!!!EEV: 2024/25/07
*-	*-	*-
